X: 22581
T: Lady Of Ardross, The
R: barndance
M: 4/4
K: Gmajor
|:DE/F/|G4 B2 AG|G2 F>E D2 DE/F/|G4 d2 cB|E4 F>E F<A|
G4 B2 AG|G2 F>E D2 DC|B,>D ED D<G GF|G6:|
d>c|B<G GB c>B A<D|E<G G>F D2 d>c|B<G ed g>e dB|d6 d>c|
B<G GB c>B A<D|G2 GF D2 DC|B,>D ED D<G GF|G6 d>c|
B<G GB c>B A<D|E<G G>F D2 d>c|B<G ed g>e dB|A6 DE/F/|
G2 G2 B2 AG|G2 F>D C2 B,C|D>C DE D<G GF|G6||

